X:1
T:Title
%%score ( 1 2 ) { 3 | 4 }
L:1/8
Q:1/4=103
M:6/8
K:G
V:1 treble nm="Grand Piano, Soprano"
V:2 treble 
V:3 treble nm="Choir Pad, Doha, George C. Hugg"
V:4 bass 
V:1
 [GB] [GB]2 [DG]GF | [DG] [FA]2 [FA] [FA]2 | [Ac] [GB]2 [EA] [EA]2 | [EG] [DG]2- [DG] [DF]2 | %4
w: By~George~Crawford~Hugg,~1893 * * * *||||
 D [GB]2 [DG]GF | [DG] [FA]2 [FA] [FA]2 | [Ac] [GB]2 [Gd] [DG]2 | [GB] [FA]2- [FA] G2 | %8
w: ||||
 G [FA]2 [FA][Ac][GB] | [FA] [GB]2 [Gd] [Gd]2 | [GB] [FA]2 [FA][Ac][GB] | [FA] [GB]2- [GB] [FA]2 | %12
w: ||||
 D [GB]2 [GB]BA | G [CE]2 [EG] [Gc]2 | [Ge] [Gd]2 [GB] [DG]2 | [GB] [FA]2- [FA] G2 | %16
w: ||||
 [Gd] [Gd]2 [GB]BA | G [FA]2 [GB] [FA]2 | [Fd] [Gd]2 [GB]BA | G [GB]2- [GB] [FA]2 | %20
w: ||||
 D [GB]2 [GB]BA | G [CE]2 [EG] [Gc]2 | [Ge] [Gd]2 [GB] [DG]2 | [GB] [FA]2- [FA] G2- | G6 |] %25
w: |||||
V:2
 z3 z D2 | x6 | x6 | x6 | z3 z D2 | x6 | x6 | x6 | x6 | x6 | x6 | x6 | z3 z G2 | x6 | x6 | x6 | %16
 z3 z G2 | x6 | z3 z G2 | x6 | z3 z G2 | x6 | x6 | x6 | x6 |] %25
V:3
 D D2 B,B,C | B, D2 D D2 | D D2 C C2 | C[K:bass] B,2- B, A,2 | D, D2 B,B,[K:treble]C | B, D2 D D2 | %6
 D D2 B, B,2 | D C2- C B,2 | B, D2 D D2 | D D2 B, B,2 | D D2 D D2 | D D2- D D2 | D D2 DDC | %13
 B, G,2 C E2 | C B,2 D B,2 | D C2- C[K:bass] B,2 | B, B,2 DD[K:treble]C | B, D2 D D2 | A, B,2 DDC | %19
 B, D2- D D2 | D D2 DDC | B, G,2 C E2 | C B,2 D B,2 | D C2- C B,2- | B,6 |] %25
V:4
 G, G,2 G, G,2 | G, D,2 D, D,2 | D, G,2 C, C,2 | C, D,2- D, D,2 | z G,2 G, G,2 | G, D,2 D, D,2 | %6
 D, G,2 G, G,2 | G, D,2- D, G,2 | G, D,2 D, D,2 | D, G,2 G, G,2 | G, D,2 D, D,2 | D, D,2- D, D,2 | %12
 D, G,2 G, G,2 | G, C,2 C, C,2 | C, D,2 D, D,2 | D, D,2- D, G,2 | G, G,2 G, G,2 | G, D,2 D, D,2 | %18
 D, G,2 G, G,2 | G, D,2- D, D,2 | D, G,2 G, G,2 | G, C,2 C, C,2 | C, D,2 D, D,2 | D, D,2- D, G,2- | %24
 G,6 |] %25

